X:1
T:What though her frowns - Pilkington
T:James Gibb editions
T:#
%%score [ 1 2 3 4 ]
L:1/8
Q:1/4=108
M:2/2
K:F
V:1 treble nm="Soprano" snm="S"
V:2 treble nm="Alto" snm="A"
V:3 treble-8 nm="Tenor" snm="T"
V:4 bass nm="Bass" snm="B"
V:1
"^What Though Her Frowns" z2 F2 F4- | F2 G2 F4 | A2 c4 B2 | A4 z2 A2 | %4
w: What though|* her frowns,|what though her|frowns and|
 B6"^Francis Pilkington\n(c. 1562-1638)" A2 |[M:2/2] G6 G2 | F4 c4 | d2 c2 d4 | z2 d2 c4- | %9
w: hard en-|trea- ties|kill? what|though her frowns|and hard|
 c2 B2 A2 A2 | G4 z4 | z8 | c8 | G4 =B4 | c6 G2 | _B4 A4 | G6 G2 | G4 z2 c2 | A2 A2 B2 G2 | c4 z4 | %20
w: * en- trea- ties|kill?||what|though her|frowns and|hard en-|trea- ties|kill? I|will not cease to|love,|
 z8 | z4 z2 d2 | =B2 B2 c2 A2 | F4 z4 | z2 c2 A2 A2 | B2 G2 c4 | z2 d2 c2 c2 | A2 =B2 c4 | %28
w: |I|will not cease to|love,|I will not|cease to love,|I will not|cease to love,|
 z2 !courtesy!_B2 G2 G2 | z2 A2 c2 c2 | A6 z2 |: B2 FF B3 A | G2 G2 z4 | G2 GG B2 B2 | A2 F2 z4 | %35
w: af- fect her,|af- fect her|still.|Still will I love her|beau- ty,|still will I love her|beau- ty,|
 A2 FF A2 ^F2 | G2 G2 z4 | c2 AA d2 c2 | A6 A2 | d4 c4 | B6 z2 | A2 AA A2 A2 | z4 G2 GG | G4 E4 | %44
w: still will I love her|beau- ty,|still will I love her|beau- ty,|hate her|scorn,|Love her for beau- ty,|love her for|beau- ty|
 C3 D E2 F2 | G4 A3 G | (A=B c4) B2 | c4 z4 | z4 G3 A | =B2 c2 d4 | z4 =B3 c | (de) d2 c4 | %52
w: at her beau- ty's|morn, at her|beau\- * * ty's|morn,|at her|beau- ty's morn,|at her|beau\- * ty's morn,|
 z4 F3 G | (A G2) ^F G4 | G2 A2 G2 G2 | F4 B2 B2 | A6 F2 | G6 c2 | c6 c2 | A8 :| %60
w: at her|beau\- * ty's morn,|at her beau- ty's|morn, at her|beau- ty's|morn, her|beau- ty's|morn.|
V:2
 z2 C2 C4- | C2 C2 C4 | F2 F4 (DE) | F4 z2 F2 | F6 F2 |[M:2/2] F4 E4 | F4 F4 | F2 F2 F4 | %8
w: What though|* her frowns,|what though her *|frowns and|hard en-|trea- ties|kill? what|though her frowns|
 z2 F2 _E4- | E2 G2 G2 ^F2 | G8 | F8 | E4 F4 | G4 z4 | z4 G4 | D4 F4 | D6 D2 | E8 | z8 | z4 z2 G2 | %20
w: and hard|* en- trea- ties|kill?|what|though her|frowns|and|hard en-|trea- ties|kill?||I|
 E2 E2 F2 D2 | G4 F4 | D2 D2 E2 C2 | C4 z4 | z2 G2 F2 F2 | G2 D2 G4 | z8 | z2 F2 E2 E2 | F2 D2 E4 | %29
w: will not cease to|love, I|will not cease to|love,|I will not|cease to love,||I will not|cease to love,|
 z2 F2 F2 E2 | F6 z2 |: z8 | G2 EE G2 _E2 | D2 D2 z4 | F2 CC F2 C2 | F2 F2 z4 | _E2 EE G2 G2 | F8 | %38
w: af- fect her|still.||Still will I love her|beau- ty,|still will I love her|beau- ty,|still will I love her|beau-|
 F8 | F6 _E2 | D6 z2 | C2 FF F2 F2 | z4 C2 CC | D4 C4 | z4 C3 D | E2 E2 F4 | F (G A2) G2 G2 | %47
w: ty,|hate her|scorn,|Love her for beau- ty,|love her for|beau- ty|at her|beau- ty's morn,|at her * beau- ty's|
 C4 z4 | D2 D2 E4 | z4 D3 D | E3 F G4 | z4 E3 F | (GF) G2 A4 | z4 D2 D2 | (E2 F4) E2 | F8 | F6 C2 | %57
w: morn,|beau- ty's morn,|at her|beau- ty's morn,|at her|beau\- * ty's morn,|at her|beau\- * ty's|morn,|at her|
 ((E3 F G2 F2 | E2 F4)) E2 | F8 :| %60
w: beau\- * * *|* * ty's|morn.|
V:3
 z2 A2 A4- | A2 G2 A4 | c2 F4 G2 | c4 z2 c2 | d6 c2 |[M:2/2][K:treble-8] c6 c2 | A4 A4 | B2 A2 B4 | %8
w: What though|* her frowns,|what though her|frowns and|hard en-|trea- ties|kill? what|though her frowns|
 z2 B2 c4- | c2 G2 d2 d2 | d4 c4 | A4 =B4 | c4 A4 | c4 d4 | e4 c4 | d2 G2 c4- | c4 =B4 | c8 | z8 | %19
w: and hard|* en- trea- ties|kill? what|though her|frowns, what|though her|frowns and|hard en- trea\-|* ties|kill?||
 z4 d4 | c2 c2 A2 =B2 | c4 z4 | z4 c4 | A2 A2 A2 F2 | G4 z4 | G4 E2 E2 | F2 D2 G4 | A2 F2 G4 | %28
w: I|will not cease to|love,|I|will not cease to|love,|I will not|cease to love,|cease to love,|
 z2 d2 c2 c2 | z2 c2 c2 c2 | c6 z2 |: z4 d2 dd | e2 c2 c2 c2 | z4 d2 BB | c2 A2 A2 A2 | z4 d2 AA | %36
w: af- fect her,|af- fect her|still.|Still will I|love her beau- ty,|still will I|love her beau- ty,|still will I|
 G2 G2 B2 B2 | A2 AA A2 A2 | c6 c2 | B6 A2 | B6 z2 | c2 cc c2 c2 | z4 G2 GG | (=B2 G2) G4 | z8 | %45
w: love her beau- ty,|still will I love her|beau- ty,|hate her|scorn,|Love her for beau- ty,|love her for|beau\- * ty,||
 z8 | z8 | z4 G3 A | =B2 B2 c4 | d2 c2 G2 G2 | G4 G3 A | (=B c2) B c4 | c3 c c4- | c2 d2 =B4 | %54
w: ||at her|beau- ty's morn,|at her beau- ty's|morn, at her|beau\- * ty's morn,|at her beau\-|* ty's morn,|
 c6 c2 | A2 A2 d4 | c4 c4 | c6 (A2 | G8) | F8 :| %60
w: at her|beau- ty's morn,|at her|beau- ty's||morn.|
V:4
 z2 F,2 F,4- | F,2 E,2 F,4 | F,2 A,4 G,2 | F,4 z2 F,2 | B,6 F,2 |[M:2/2] C,6 C,2 | F,8 | z8 | z8 | %9
w: What though|* her frowns,|what though her|frowns and|hard en-|trea- ties|kill?|||
 z4 D,4 | =B,,4 C,4 | D,8 | z4 F,4 | E,4 D,4 | C,6 C,2 | G,4 F,4 | G,6 G,2 | C,8 | z4 z2 C,2 | %19
w: what|though her|frowns,|What|though her|frowns and|hard en-|trea- ties|kill?|I|
 A,,2 A,,2 B,,2 G,,2 | C,4 z2 G,2 | E,2 E,2 F,2 (D,2 | G,4 C,4 | z2 F,2 D,2 D,2 | E,2 C,2 F,4 | %25
w: will not cease to|love, I|will not cease to|* love,|I will not|cease to love,|
 z8 | z2 F,2 E,2 E,2 | F,2 D,2 C,4 | z2 B,,2 C,2 C,2 | z2 F,2 C,2 C,2 | F,6 z2 |: B,,8 | C,8 | %33
w: |I will not|cease to love,|af- fect her,|af- fect her|still.|Still|will|
 G,8 | F,8 | D,8 | _E,8 | F,8) | F,8 | B,,4 F,4 | B,,6 z2 | F,2 F,F, F,2 F,2 | z4 E,2 C,C, | %43
w: I|love|her|beau\-||ty,|hate her|scorn,|Love her for beau- ty,|love her for|
 G,4 C,4 | z8 | z8 | z8 | C,3 D, E,2 F,2 | G,4 z4 | G,,3 A,, =B,,2 B,,2 | C,4 z4 | z4 C,3 D, | %52
w: beau- ty,||||at her beau- ty's|morn,|at her beau- ty's|morn,|at her|
 (E, F,2) E, F,4 | z4 G,2 G,2 | C,6 C,2 | D,4 B,,2 B,,2 | F,4 F,4 | C,6 C,2 | C,4 C,4 | F,,8 :| %60
w: beau\- * ty's morn,|at her|beau- ty's|morn, at her|beau- ty's|morn, her|beau- ty's|morn.|

